material/.icons/material/text-box-multiple-outline.svg

<svg xmlns="http://www.w3.org/2000/svg" viewBox="0 0 24 24"><path d="M16 15H9v-2h7v2m3-4H9V9h10v2m0-4H9V5h10v2M3 5v16h16v2H3a2 2 0 01-2-2V5h2m18-4a2 2 0 012 2v14c0 1.11-.89 2-2 2H7a2 2 0 01-2-2V3c0-1.11.89-2 2-2h14M7 3v14h14V3H7z"/></svg>

<?xml version="1.0" encoding="UTF-8"?><!DOCTYPE svg PUBLIC "-//W3C//DTD SVG 1.1//EN" "http://www.w3.org/Graphics/SVG/1.1/DTD/svg11.dtd"><svg xmlns="http://www.w3.org/2000/svg" xmlns:xlink="http://www.w3.org/1999/xlink" version="1.1" id="mdi-text-box-multiple-outline" width="24" height="24" viewBox="0 0 24 24"><path d="M16,15H9V13H16V15M19,11H9V9H19V11M19,7H9V5H19V7M3,5V21H19V23H3A2,2 0 0,1 1,21V5H3M21,1A2,2 0 0,1 23,3V17C23,18.11 22.11,19 21,19H7A2,2 0 0,1 5,17V3C5,1.89 5.89,1 7,1H21M7,3V17H21V3H7Z" /></svg>
